!!!COM: Bach, Johann Sebastian
!!!OPR: Joh. Seb. Bachs vierstimmige Choralges‰nge
!!!XEN: Four-part Chorales
!!!OTL: 167. Warum betr¸bst du dich, mein Herz
!!!SCT: BWV 420
!!!SCA: Thematisch-systematisches Verzeichnis der musikalischen Werke Johann Sebastian Bach: Bach-Werke-Verzeichnis (Schmieder)
!!!YOR: Bach Gesellschaft Edition xxxix
!!!ENC: Steven Rasmussen
!!!CDT: 1685/3//-1750/7/28/
!!!OCY: Deutschland
!!!YEC: Copyright (c) 1994, 2000 Center for Computer Assisted Research in the Humanities
!!!YEM: Rights to all derivative editions reserved
!!!YEN: United States of America
**kern	**silbe	**kern	**kern	**kern
*I:[SOPRANO]	*I:[SOPRANO]	*I:[ALTO]	*I:[TENORE]	*I:[BASSO]
*clefG2	*	*clefG2	*clefGv2	*clefF4
*k[]	*	*k[]	*k[]	*k[]
*a:	*	*a:	*a:	*a:
*M4/4	*	*M4/4	*M4/4	*M4/4
4a	Wa-	4e	4c#	4AA
=1	=1	=1	=1	=1
8aL	-rum	4e	8cL	8AL
8bJ	.	.	8BJ	8G#J
4cc	be-	4e	4A	4A
4b	-tr√ºbst	4.e	4G#	8EL
.	.	.	.	8DJ
4ee	du	.	4A	4C
.	.	8f#	.	.
=2	=2	=2	=2	=2
4dd	dich,	4g#	4B	4BB
4cc	mein	4a	8cL	4AA
.	.	.	8dJ	.
4b;	Herz,	4g#;	4e;	4E;
8ccL	be-	8aL	8eL	4AA
8bJ	.	8g#J	8dJ	.
=3	=3	=3	=3	=3
4a	-k√ºm-	4a	8cL	4A
.	.	.	8BJ	.
4ee	-merst	4a	4c#	8AL
.	.	.	.	8GJ
4dd	dich	4a	8dL	8FL
.	.	.	8cnJ	8EJ
4ee	und	4g	8B-L	8DL
.	.	.	8AJ	8C#J
=4	=4	=4	=4	=4
8aL	tr√§-	8gL	4A	4D
8bJ	.	8fJ	.	.
4cc#	-gest	4e	4A	4AA
4dd;	Schmerz	4f;	4A;	4DD;
4ccn	nur	4e	4A	4AA
=5	=5	=5	=5	=5
4b	um	4e	4G#	8EL
.	.	.	.	8DJ
4ee	das	8eL	8AL	8CL
.	.	8bJ	8G#J	8EJ
8eeL	zeit-	(8cc	8AL	8FF#L
8ddJ	.	4b)	8BJ	8GG#J
4cc	-lich	.	8cL	4AA
.	.	8a	8dJ	.
=6	=6	=6	=6	=6
2.b;	Gut?	2.g#;	2.e;	2.EE;
8aL	Ver-	4e	8cL	4AA
8bJ	.	.	8BJ	.
=7	=7	=7	=7	=7
4cc	-trau'	4e	4A	8AL
.	.	.	.	8GJ
4cc	du	8fL	4A	8FL
.	.	8gJ	.	8EJ
4dd	dei-	8aL	8AL	8FL
.	.	8fJ	16BL	8DJ
.	.	.	16cJJ	.
4dd	-nem	4g	4B	8GL
.	.	.	.	8FJ
=8	=8	=8	=8	=8
4ee	Her-	4g	4c	8EL
.	.	.	.	8DJ
8eeL	-ren	4g	4c	4C
8ddJ	.	.	.	.
4cc;	Gott,	4a;	4c;	4F;
4ee	der	8gL	4c	8CL
.	.	8aJ	.	8BBJ
=9	=9	=9	=9	=9
4dd	al-	4b	8fL	8AAL
.	.	.	8eJ	8GG#J
4cc	-le	4a	4e	8AAL
.	.	.	.	8GGnJ
4b	Ding'	4g#	4d	8FFL
.	.	.	.	8EEJ
8aL	er-	4a	8cL	8FFL
8bJ	.	.	8fJ	8DDJ
=10	=10	=10	=10	=10
4cc	-schaf-	8aL	8eL	4EE
.	.	8f#J	8AJ	.
4b	-fen	4g#	8BL	4EE
.	.	.	8dJ	.
4a;	hat.	4e;	4c#;	4AA;
==|!	==|!	==|!	==|!	==|!
*-	*-	*-	*-	*-
!!!RWG: Key is interpreted using the Humdrum key tool.
!!!END: 1994/08/03
!!!EMD: Converted from MuseData to Humdrum Dec 19, 2000, by Andreas Kornstaedt using muse2kern.
!!!EED: Craig Stuart Sapp
!!!EEV: 2024/03/31
!!!ONB: Some non-unicode characters
